icons/op-backlogs-24.svg

<svg width="24" height="24" viewBox="0 0 24 24" fill="none" xmlns="http://www.w3.org/2000/svg">
<path d="M14.7197 4.99264C14.4268 5.28553 14.4268 5.76041 14.7197 6.0533L17.4926 8.82627C17.7855 9.11917 18.2604 9.11917 18.5533 8.82627C18.8462 8.53338 18.8462 8.05851 18.5533 7.76561L17.0607 6.27297H20.5V18.773H16.75C16.3358 18.773 16 19.1088 16 19.523C16 19.9372 16.3358 20.273 16.75 20.273H21.25C21.6642 20.273 22 19.9372 22 19.523V5.52297C22 5.10876 21.6642 4.77297 21.25 4.77297H17.0607L18.5533 3.28033C18.8462 2.98744 18.8462 2.51256 18.5533 2.21967C18.2604 1.92678 17.7855 1.92678 17.4926 2.21967L14.7197 4.99264Z" fill="#636C76"/>
<path fill-rule="evenodd" clip-rule="evenodd" d="M10.6667 3C11.9553 3 13 3.95597 13 5.28688V5.97541C13 7.30633 11.9553 7.99926 10.6667 7.99926H4.33333C3.04467 7.99926 2 7.30632 2 5.97541V5.28688C2 3.95597 3.04467 3 4.33333 3H10.6667ZM11.5 4.94262C11.5 4.75249 11.3508 4.59836 11.1667 4.59836H3.83333C3.64924 4.59836 3.5 4.75249 3.5 4.94262V6.15574C3.5 6.34587 3.64924 6.5 3.83333 6.5H11.1667C11.3508 6.5 11.5 6.34587 11.5 6.15574V4.94262Z" fill="#636C76"/>
<path fill-rule="evenodd" clip-rule="evenodd" d="M13.6667 10C14.9553 10 16 10.956 16 12.2869V12.9754C16 14.3063 14.9553 14.9993 13.6667 14.9993H7.33333C6.04467 14.9993 5 14.3063 5 12.9754V12.2869C5 10.956 6.04467 10 7.33333 10H13.6667ZM14.5 11.9426C14.5 11.7525 14.3508 11.5984 14.1667 11.5984H6.83333C6.64924 11.5984 6.5 11.7525 6.5 11.9426V13.1557C6.5 13.3459 6.64924 13.5 6.83333 13.5H14.1667C14.3508 13.5 14.5 13.3459 14.5 13.1557V11.9426Z" fill="#636C76"/>
<path fill-rule="evenodd" clip-rule="evenodd" d="M14.5 19.2869C14.5 17.956 13.4553 17 12.1667 17H5.83333C4.54467 17 3.5 17.956 3.5 19.2869V19.9754C3.5 21.3063 4.54467 21.9993 5.83333 21.9993H12.1667C13.4553 21.9993 14.5 21.3063 14.5 19.9754V19.2869ZM12.6667 18.5984C12.8508 18.5984 13 18.7525 13 18.9426V20.1557C13 20.3459 12.8508 20.5 12.6667 20.5H5.33333C5.14924 20.5 5 20.3459 5 20.1557V18.9426C5 18.7525 5.14924 18.5984 5.33333 18.5984H12.6667Z" fill="#636C76"/>
</svg>

<svg xmlns="http://www.w3.org/2000/svg" width="24" height="24" viewBox="0 0 24 24"><path d="M14.72 4.993a.749.749 0 0 0 0 1.06l2.773 2.773a.749.749 0 1 0 1.06-1.06l-1.492-1.493H20.5v12.5h-3.75a.75.75 0 0 0 0 1.5h4.5a.75.75 0 0 0 .75-.75v-14a.75.75 0 0 0-.75-.75h-4.189l1.492-1.493a.749.749 0 1 0-1.06-1.06L14.72 4.993ZM10.667 3C11.955 3 13 3.956 13 5.287v.688c0 1.331-1.045 2.024-2.333 2.024H4.333C3.045 7.999 2 7.306 2 5.975v-.688C2 3.956 3.045 3 4.333 3Zm.833 1.943a.339.339 0 0 0-.333-.345H3.833a.339.339 0 0 0-.333.345v1.213c0 .19.149.344.333.344h7.334a.339.339 0 0 0 .333-.344Z"/><path d="M13.667 10c1.288 0 2.333.956 2.333 2.287v.688c0 1.331-1.045 2.024-2.333 2.024H7.333C6.045 14.999 5 14.306 5 12.975v-.688C5 10.956 6.045 10 7.333 10Zm.833 1.943a.339.339 0 0 0-.333-.345H6.833a.339.339 0 0 0-.333.345v1.213c0 .19.149.344.333.344h7.334a.339.339 0 0 0 .333-.344Zm0 7.344v.688c0 1.331-1.045 2.024-2.333 2.024H5.833c-1.288 0-2.333-.693-2.333-2.024v-.688C3.5 17.956 4.545 17 5.833 17h6.334c1.288 0 2.333.956 2.333 2.287Zm-1.833-.689H5.333a.34.34 0 0 0-.333.345v1.213c0 .19.149.344.333.344h7.334a.339.339 0 0 0 .333-.344v-1.213a.34.34 0 0 0-.333-.345Z"/></svg>
